src/components/00-materials/images-raw/Glossary.svg

<svg width="96" height="96" viewBox="0 0 96 96" fill="none" xmlns="http://www.w3.org/2000/svg">
<path d="M34.82 14.6101L34.85 80.5901M70.82 16.9301L70.63 16.6601C70.52 16.5101 70.4 16.3701 70.28 16.2301L69.98 15.9401L69.68 15.7001L69.34 15.4601C69.23 15.4001 69.14 15.3301 69.03 15.2801C68.8163 15.1598 68.5921 15.0594 68.36 14.9801L68.03 14.8801C67.8696 14.8262 67.706 14.7828 67.54 14.7501L67.18 14.6801C66.96 14.6801 66.75 14.6801 66.53 14.6301H29.64C26.89 14.6301 24.64 16.4901 24.64 18.7601V77.3201C24.6456 77.9487 24.8219 78.5639 25.15 79.1001C25.3952 79.5024 25.7062 79.8607 26.07 80.1601L26.18 80.2501C26.3796 80.4081 26.5901 80.5518 26.81 80.6801H26.87C27.1331 80.8222 27.4073 80.9426 27.69 81.0401H27.74C28.0106 81.1324 28.2881 81.2026 28.57 81.2501H28.69C29.0202 81.308 29.3547 81.3381 29.69 81.3401H66.38C69.13 81.3401 71.38 79.4801 71.38 77.2101V18.7101C71.3589 18.0769 71.1652 17.4614 70.82 16.9301V16.9301Z" stroke="#00008F" stroke-width="2" stroke-linecap="round" stroke-linejoin="round"/>
<path d="M47.4809 41.2633L47.3777 40.9H47H43.35H42.9736L42.8695 41.2618L42.1336 43.82H41.2582L44.4333 34.05H45.9474L49.1406 43.82H48.2077L47.4809 41.2633ZM46.58 40.4H47.2442L47.0605 39.7617L46.6805 38.4417L46.6806 38.4417L46.6768 38.4295C46.4989 37.8663 46.3313 37.2942 46.1736 36.6932C46.1224 36.4977 46.0718 36.3031 46.0215 36.1093C45.916 35.7031 45.8113 35.3002 45.7026 34.8992L45.6025 34.53H45.22H45.16H44.7759L44.6769 34.9012C44.5159 35.5049 44.3651 36.1079 44.2155 36.7066L44.2149 36.7088C44.0681 37.2962 43.9011 37.866 43.7232 38.4295L43.7232 38.4295L43.7215 38.435L43.3215 39.755L43.126 40.4H43.8H46.58ZM62.78 34.66H58.56V34.04H64.66V34.5416L59.531 42.4172L59.0277 43.19H59.95H64.7V43.81H58.08V43.3083L63.1992 35.4325L63.7013 34.66H62.78ZM52.06 39.97H54.98V40.35H52.06V39.97Z" stroke="#00008F"/>
</svg>

<svg width="96" height="96" viewBox="0 0 96 96" fill="none" xmlns="http://www.w3.org/2000/svg"><path d="M34.82 14.61l.03 65.98m35.97-63.66l-.19-.27c-.11-.15-.23-.29-.35-.43l-.3-.29-.3-.24-.34-.24c-.11-.06-.2-.13-.31-.18a4.006 4.006 0 00-.67-.3l-.33-.1a3.911 3.911 0 00-.49-.13l-.36-.07c-.22 0-.43 0-.65-.05H29.64c-2.75 0-5 1.86-5 4.13v58.56a3.47 3.47 0 00.51 1.78c.245.402.556.76.92 1.06l.11.09c.2.158.41.302.63.43h.06c.263.142.537.263.82.36h.05c.27.092.548.163.83.21h.12c.33.058.665.088 1 .09h36.69c2.75 0 5-1.86 5-4.13v-58.5a3.48 3.48 0 00-.56-1.78v0z" stroke="#00008F" stroke-width="2" stroke-linecap="round" stroke-linejoin="round"/><path d="M47.48 41.263l-.102-.363h-4.404l-.104.362-.736 2.558h-.876l3.175-9.77h1.514l3.194 9.77h-.933l-.727-2.557zm-.9-.863h.664l-.184-.638-.38-1.32h0l-.003-.013a36.403 36.403 0 01-.503-1.736c-.052-.195-.102-.39-.152-.584-.106-.406-.21-.809-.32-1.21l-.1-.369H44.776l-.1.371c-.16.604-.31 1.207-.46 1.806l-.001.002a29.277 29.277 0 01-.492 1.72h0l-.002.006-.4 1.32-.195.645H46.58zm16.2-5.74h-4.22v-.62h6.1v.502l-5.129 7.875-.503.773H64.7v.62h-6.62v-.502l5.12-7.876.501-.772h-.921zm-10.72 5.31h2.92v.38h-2.92v-.38z" stroke="#00008F"/></svg>
